X: 40530
T: Tommy Maguire's
R: reel
M: 4/4
K: Dmajor
FBAF EFDe|fded BdAG|FA~A2 eAfA|gfed (3Bcd AG|
FAeA fAeA|EB~B2 ^GEBA|^Ge~e2 fe^de|dB^GB A3=G|
FBAF EFDe|fded BdAG|FAA2 eAfA|gfed (3Bcd AG|
FAdA FADF|~G2BG EGDE|CA~A2 ^GAag|fdec dABc||
d2fd adfd|egfd edBG|~A2FA DAFe|cAec AecA|
d2fd adfd|(3Bcd ef g2fg|af(3gfe fded|cAGE DEFA|
d2fd adfd|GBBG ~B2cB|AGFA DAFA|BGec AecA|
d2fd adfd|(3Bcd ef g2fg|af(3gfe fded|cAGE D3E||

